X: 4
T: The Star Of Munster
R: reel
M: 4/4
L: 1/8
K: Ador
~c3A BAGB|AdBA GEDG|EA~A2 cBcd|eaae gedB|~c3A BAGB|AdBA GEDG|EA~A2 cBcd|eddB A3B:|:ea~a2 ageg|a2ba agef|g2fa gd~d2|gaba gedg|ea~a2 ageg|a2ba agef|~g3e a2ga|1bgaf gedg:|2bgaf gedg|


Tune 197	Setting 197

